public/train-bullets/6.svg

<?xml version="1.0" standalone="no"?>
<!DOCTYPE svg PUBLIC "-//W3C//DTD SVG 1.1//EN" "http://www.w3.org/Graphics/SVG/1.1/DTD/svg11.dtd">
<svg width="100%" height="100%" viewBox="0 0 90 90" version="1.1" xmlns="http://www.w3.org/2000/svg" xmlns:xlink="http://www.w3.org/1999/xlink" xml:space="preserve" style="fill-rule:evenodd;clip-rule:evenodd;stroke-linejoin:round;stroke-miterlimit:1.41421;">
    <g id="6">
        <circle cx="45" cy="45" r="45" style="fill:rgb(0,147,59);"/>
        <path d="M39.9056,60.2669C41.2728,61.8728 43.0089,62.6758 45.1139,62.6758C47.1756,62.6758 48.7977,61.9 49.9805,60.3483C51.1632,58.7967 51.7546,56.7839 51.7546,54.3099C51.7546,51.5538 51.0818,49.4434 49.7363,47.9785C48.3908,46.5137 46.7415,45.7813 44.7884,45.7813C43.2042,45.7813 41.8045,46.2587 40.5892,47.2135C38.7663,48.6241 37.8548,50.9028 37.8548,54.0495C37.8548,56.5885 38.5384,58.661 39.9056,60.2669ZM50.9082,33.6719C50.9082,32.9123 50.6152,32.0768 50.0293,31.1654C49.031,29.6897 47.5228,28.9518 45.5046,28.9518C42.4881,28.9518 40.3396,30.6445 39.0592,34.0299C38.3648,35.8963 37.8874,38.6523 37.627,42.2982C38.7771,40.931 40.1118,39.9327 41.6309,39.3034C43.15,38.674 44.8861,38.3594 46.8392,38.3594C51.0276,38.3594 54.4618,39.7808 57.1419,42.6237C59.822,45.4666 61.1621,49.1016 61.1621,53.5286C61.1621,57.934 59.8492,61.8186 57.2233,65.1823C54.5974,68.546 50.5176,70.2279 44.9837,70.2279C39.0375,70.2279 34.6539,67.7431 31.8327,62.7734C29.6408,58.8889 28.5449,53.8759 28.5449,47.7344C28.5449,44.1319 28.6968,41.2023 29.0007,38.9453C29.5432,34.9306 30.5957,31.5885 32.1582,28.9193C33.5037,26.6406 35.2669,24.8069 37.4479,23.418C39.6289,22.0291 42.2385,21.3346 45.2767,21.3346C49.6604,21.3346 53.1543,22.4577 55.7585,24.7038C58.3626,26.9499 59.8275,29.9392 60.153,33.6719L50.9082,33.6719Z" style="fill:white;fill-rule:nonzero;"/>
    </g>
</svg>

<svg xmlns="http://www.w3.org/2000/svg" xml:space="preserve" style="fill-rule:evenodd;clip-rule:evenodd;stroke-linejoin:round;stroke-miterlimit:1.41421" viewBox="0 0 90 90"><circle cx="45" cy="45" r="45" style="fill:#00933b"/><path d="M39.906 60.267q2.05 2.409 5.208 2.409 3.093 0 4.867-2.328 1.773-2.327 1.774-6.038 0-4.134-2.019-6.332-2.017-2.197-4.948-2.197-2.375 0-4.199 1.433-2.734 2.115-2.734 6.836 0 3.808 2.05 6.217m11.002-26.595q0-1.14-.879-2.507-1.497-2.213-4.524-2.213-4.525 0-6.446 5.078-1.041 2.799-1.432 8.268 1.725-2.05 4.004-2.995 2.279-.944 5.208-.944 6.283 0 10.303 4.265t4.02 10.905q0 6.608-3.939 11.653t-12.24 5.046q-8.919 0-13.15-7.455-3.288-5.826-3.288-15.039 0-5.403.456-8.789.814-6.022 3.157-10.026 2.019-3.417 5.29-5.501 3.27-2.083 7.829-2.083 6.575 0 10.481 3.369 3.907 3.369 4.395 8.968z" style="fill:#fff;fill-rule:nonzero"/></svg>
